!!!!SEGMENT: pl-cz--iii-583--001-002_rygall-ignacy--huc-ad-festum-et-amoris-sacris-flammas-con-templare.krn
!!!cenid: 17xx:1108
!!!COM: Rygall, Ignacy
!!!COM-rismID: pe30110281
!!!CDT: <1750->1799
!!!CNT:
!!!OPR: Huc ad festum
!!!OTL: Et amoris sacris flammas - Con templare
!!!OMV: 002
!!!PDT: 1776
!!!AGN:
!!!YEC: Copyright 2022 Narodowy Instytut Fryderyka Chopina (https://polishscores.org)
!!!YEM: License CC-BY-4.0 (https://creativecommons.org/licenses/by/4.0)
!!!SMS-siglum: PL-CZ
!!!SMS-shelfmark: III-583
!!!SMS-shelfwork: 001-002 M
!!!SMS-variant:
!!!SMS-altvar:
!!!NIFC-rismSourceID: 300001125
!!!NIFC-rismChildID: 300001125
!!!NIFC-islandoraID: pl-cz:39335
!!!URL-pdf-islandora: https://repozytorium.nifc.pl/islandora/object/pl-cz%3A39335/datastream/PDF/view
!!!URL-scan: https://polish.musicsources.pl/pl/lokalizacje/galeria/rekopisy/6957/1 @EN{Scan on Polish Music Sources Website} @PL{Skany w portalu Dziedzictwo Muzyki Polskiej w otwartym dostępie}
!!!IIIF:
!!!ONB-nifc: UWAGA: części Huc ad festum: Huc ad festum/Omni die dic Mariae, Et amoris sacris flammas/Con templare, Huc ad festum/Ipsam cole, Et amoris sactis flammas/Hac persona. Uwaga: uwzględnić obie partie wokalne z różnymi tekstami – Soprano Solo i Canto Solo
!!!AIN: 1 cbass 2 soprn 1 viola 2 violn
!!!key: F
**kern	**kern	**kern	**kern	**dynam	**kern	**text	**kern	**text
*group1	*group1	*group1	*group1	*	*	*	*	*
*part6	*part5	*part4	*part3	*	*part2	*	*part1	*
*staff6	*staff5	*staff4	*staff3	*	*staff2	*	*staff1	*
*I"Baſso	*I"Viola	*I"Violino Secondo	*I"Violino Primo	*	*I"Canto Solo:	*	*I"Soprano Solo	*
*I'cb	*I'vla	*I'vl 2	*I'vl 1	*	*I'S	*	*I'S	*
*Icbass	*Iviola	*Ivioln	*Ivioln	*	*Isoprn	*	*Isoprn	*
*ICstr	*ICstr	*ICstr	*ICstr	*	*ICvox	*	*ICvox	*
*	*	*	*	*	*IGsolo	*	*IGcoro	*
*clefF4	*clefC3	*clefG2	*clefG2	*	*clefC1	*	*clefC1	*
*Trd0c0	*	*	*	*	*	*	*	*
*k[b-e-]	*k[b-e-]	*k[b-e-]	*k[b-e-]	*	*k[e-b-]	*	*k[b-e-]	*
*F:	*F:	*F:	*F:	*	*F:	*	*F:	*
*M4/4	*M4/4	*M4/4	*M4/4	*	*M4/4	*	*M4/4	*
*met(c)	*met(c)	*met(c)	*met(c)	*	*met(c)	*	*met(c)	*
=1	=1	=1	=1	=1	=1	=1	=1	=1
*	*	*	*	*	*all\right	*	*	*
*2\right	*2\right	*	*	*	*2\right	*	*2\right	*
*tremolo	*tremolo	*tremolo	*	*	*	*	*	*
!	!	!	!	!	!LO:TX:t=P:problem=znaki ee- b-	!	!LO:TX:t=P:problem=we wszystkich głosach znaki z poprzedniej części, bo przy tej nie bylo	!
!LO:TX:a:rj:t=allo molto	!LO:TX:a:rj:t=allo molto	!LO:TX:a:rj:t=allo molto	!LO:TX:a:t=allo molto	!	!	!	!	!
8F\L	8c\L	8A/L	4ff\	.	2ff\	Con	2ff\	et
8F\	8c\	8A/	.	.	.	.	.	.
8F\	8c\	8A/	8ff\L	.	.	.	.	.
8F\J	8c\J	8A/J	8ff\J	.	.	.	.	.
8F\L	8c\L	8A/L	8ff\L	.	8ff\L	.	8ff\L	a-
!	!	!	!LO:SIC:v:o=8ee-\	!	!LO:TX:a:t=P:problem=♮ above	!	!	!
8F\	8c\	8A/	8ee	.	8een\J	.	8een\	.
8F\	8c\	8A/	8dd\	.	8dd\L	tem-	8dd\	.
8F\J	8c\J	8A/J	8cc\J	.	8cc\J	.	8cc\J	.
=2	=2	=2	=2	=2	=2	=2	=2	=2
8G\L	8c\L	8B-/L	8cc\L	.	(8cc\L	-pla-	8cc\L	-mo-
8G\	8c\	8B-/	8b-\	.	8b-\	.	8b-\	.
8G\	8c\	8B-/	8b-\	.	8a\	.	8a\	.
8G\J	8c\J	8B-/J	8b-\J	.	8b-\J)	.	8b-\J	.
*Xtremolo	*	*Xtremolo	*	*	*	*	*	*
8G\L	8c\L	8B-/L	4b-\	.	4b-\	-re	4b-\	-ris
8G\	8c\	8B-/	.	.	.	.	.	.
8F\	8c\	8A/	4r	.	4r	.	4r	.
8F\J	8c\J	8A/J	.	.	.	.	.	.
!	!	!	!LO:LB:g=original	!	!	!	!	!
=3	=3	=3	=3	=3	=3	=3	=3	=3
*tremolo	*	*tremolo	*	*	*	*	*	*
!LO:SIC:v:o=8E-\L	!	!	!	!	!	!	!	!
8En\L	8c\L	8G/L	4gg\	.	(2gg\	et	2gg\	ſa-
!LO:SIC:v:o=8E-\	!	!	!	!	!	!	!	!
8En\	8c\	8G/	.	.	.	.	.	.
!LO:SIC:v:o=8E-\	!	!	!	!	!	!	!	!
8En\	8c\	8G/	8gg\L	.	.	.	.	.
!LO:SIC:v:o=8E-\J	!	!	!	!	!	!	!	!
8En\	8c\J	8G/J	8gg\J	.	.	.	.	.
!LO:SIC:v:o=8E-\L	!	!	!	!	!	!	!	!
8En\	8c\L	8G/L	8gg\L	.	8gg\L)	.	8gg\L	.
!LO:SIC:v:o=8E-\	!	!	!LO:SIC:v:o=8ee-\	!	!	!	!	!
8En\	8c\	8G/	8ee	.	8een\J	.	8een\	.
!LO:SIC:v:o=8E-\	!	!	!	!	!	!	!	!
8En\	8c\	8G/	8cc\	.	8cc\L	mi-	8cc\	-cri
!LO:SIC:v:o=8E-\J	!	!	!	!	!	!	!	!
8En\J	8c\J	8G/J	8b-\J	.	8b-\J	.	8b-\J	.
=4	=4	=4	=4	=4	=4	=4	=4	=4
8F\L	8F/L	8A/L	8b-\L	.	(8b-\L	-ra-	8b-\L	fla-
8F\	8F/	8A/	8a\	.	8a\J)	.	8a\	.
8F\	8F/	8A/	8a\	.	(8g\L	-re	8a\	.
8F\J	8F/J	8A/J	8a\J	.	8a\J)	.	8a\J	.
*Xtremolo	*	*	*	*	*	*	*	*
8F\L	8F/L	8A/L	4a\	.	4a\	con-	4a\	-mas
8F\	8F/	8A/	.	.	.	.	.	.
8A\	8F/	8A/	4ff\	.	4ff\	-tem-	4ff\	cor
8A\J	8F/J	8A/J	.	.	.	.	.	.
*	*	*Xtremolo	*	*	*	*	*	*
!LO:LB:g=original	!LO:LB:g=original	!	!	!	!	!	!LO:LB:g=original	!
=5	=5	=5	=5	=5	=5	=5	=5	=5
*tremolo	*	*	*	*	*	*	*	*
8B-\L	8B-/L	8e-/L	(8een\L	.	(8een\L	-pla-	8een\L	cor-
8B-\	8B-/	8d/	8dd\)	.	8dd\J)	.	8dd\	.
8B-\	8B-/	8d/	8dd|\	.	4dd\	-re	8dd\	.
8B-\J	8B-/J	8d/J	8dd|\J	.	.	.	8dd\J	.
*Xtremolo	*Xtremolo	*	*	*	*	*	*	*
8B-\L	8B-/L	4d/	4dd\	.	4dd\	et	4dd\	.
8B-\	8B-/	.	.	.	.	.	.	.
8A\	8A/	4c/	4cc\	.	4cc\	mi-	4cc\	de
8A\J	8A/J	.	.	.	.	.	.	.
!	!	!LO:LB:g=original	!	!	!	!	!	!
=6	=6	=6	=6	=6	=6	=6	=6	=6
*tremolo	*tremolo	*	*	*	*	*	*	*
8G\L	8G/L	8c/L	8cc\L	.	(8cc\L	-ra-	8cc\L	ves-
8G\	8G/	8B-/	8b-\	.	8b-\J)	.	8b-\	.
8G\	8G/	8B-/	8b-\	.	4b-,\	-re	8b-\	.
8G\J	8G/J	8B-/J	8b-\J	.	.	.	8b-\J	.
*Xtremolo	*Xtremolo	*	*	*	*	*	*	*
8G\L	8G/L	4B-/	4b-\	.	4b-\	E-	4b-\	.
8G\	8G/	.	.	.	.	.	.	.
8F\	8F/	4A/	4a\	.	4a\	-jus	4a\	-tro
8F\J	8F/J	.	.	.	.	.	.	.
!	!	!	!	!	!LO:LB:g=original	!	!	!
=7	=7	=7	=7	=7	=7	=7	=7	=7
*tremolo	*tremolo	*	*	*	*	*	*	*
8BB-/L	8B-/L	4G/	4g/	.	4g\	cel-	4g\	ex
8BB-/	8B-/	.	.	.	.	.	.	.
8BB-/	8B-/	4B-/	4b-/	.	4b-\	-si-	4b-\	ci-
8BB-/J	8B-/J	.	.	.	.	.	.	.
*Xtremolo	*Xtremolo	*	*	*	*	*	*	*
8BB-/L	8B-/L	4.d/	4.dd/	.	4.dd\	-tu-	4.dd\	-ta-
8BB-/	8B-/	.	.	.	.	.	.	.
8BBn/	8Bn/	.	.	.	.	.	.	.
8BB/J	8B/J	8d/	8f/	.	8f/	-di-	8f/	.
=8	=8	=8	=8	=8	=8	=8	=8	=8
!	!LO:TX:t=P:problem=mixed beam	!	!	!	!	!	!	!
4C\	8c\L	4d/	4f/	.	(>4f/	-nem	(>4f/	-te
.	8C/J	.	.	.	.	.	.	.
!	!	!	!LO:SIC:v:o=4e-/	!	!LO:SIC:v:o=4e-/)	!	!LO:SIC:v:o=4e-/)	!
8C\L	4C/	4c/	4e	.	4e	.	4e/)	.
8C\J	.	.	.	.	.	.	.	.
4C\	4C/	4r	4r	.	2r	.	2r	.
8E-|\L	8en\L	8c/L	8G|/L	.	.	.	.	.
8C|\J	8c\J	8c/J	8B-|/J	.	.	.	.	.
=9	=9	=9	=9	=9	=9	=9	=9	=9
*	*	*tremolo	*	*	*	*	*	*
8F|\L	8f\L	8c/L	8A|/L	.	2r	.	2r	.
8C|\	8c\	8c/	8c|/	.	.	.	.	.
!LO:SIC:v:o=8E-|\	!	!	!	!	!	!	!	!
8En|\	8en\	8c/	8G|/	.	.	.	.	.
8C|\J	8c\J	8c/J	8B-|/J	.	.	.	.	.
8F|\L	8f\L	8c/L	8A|/L	.	4r	.	4r	.
8C|\	8c\	8c/	8c|/	.	.	.	.	.
!LO:SIC:v:o=8E-|\	!	!	!	!	!	!	!	!
8En|\	8e\	8c/	8G|/	.	8een\	dic-	8een\	et
8C|\J	8c\J	8c/J	8B-|/J	.	8ee\	-fe-	8ee\	a-
!	!	!	!LO:LB:g=original	!	!	!	!	!
=10	=10	=10	=10	=10	=10	=10	=10	=10
8F|\L	8f\L	8c/L	(8A/L	.	(8ff\L	-li-	8ff\L	-mo-
8C|\	8c\	8c/	8f/)	.	8cc\J)	.	8cc\J	.
8F|\	8f\	8c/	8c|/	.	4cc\	-cem	4cc\	-ris
8C|\J	8c\J	8c/J	8c|/J	.	.	.	.	.
8F|\L	8f\L	8c/L	4c/	.	2r	.	2r	.
8C|\	8c\	8c/	.	.	.	.	.	.
!LO:SIC:v:o=8E-|\	!LO:SIC:v:o=8e-\	!	!	!	!	!	!	!
8En|\	8en\	8c/	8G/L	.	.	.	.	.
8C|\J	8c\J	8c/J	8B-/J	.	.	.	.	.
!	!LO:LB:g=original	!	!	!	!	!	!	!
=11	=11	=11	=11	=11	=11	=11	=11	=11
8F\L	8f\L	8c/L	(8A/L	.	2r	.	2r	.
8C\	8c\	8c/	8c/)	.	.	.	.	.
!LO:SIC:v:o=8E-\	!LO:SIC:v:o=8e-\	!	!	!	!	!	!	!
8En\	8en\	8c/	(8G/	.	.	.	.	.
8C\J	8c\J	8c/J	8B-/J)	.	.	.	.	.
8F\L	8f\L	8c/L	(8A/L	.	4r	.	4r	.
8C\	8c\	8c/	8c/)	.	.	.	.	.
!LO:SIC:v:o=8E-\	!LO:SIC:v:o=8e-\	!	!	!	!	!	!	!
8En\	8en\	8c/	(8G/	.	8een\	Ge-	8een\	sa-
8C\J	8c\J	8c/J	8B-/J)	.	8ee\	-ni-	8ee\	-cri-
!LO:LB:g=original	!	!	!	!	!	!	!LO:LB:g=original	!
=12	=12	=12	=12	=12	=12	=12	=12	=12
8F\L	8f\L	8c/L	(8A/L	.	(8ff\L	-tri-	8ff\L	-fla-
8C\	8c\	8c/	8f/)	.	8cc\J)	.	8cc\J	.
8F\	8f\	8c/	8c|/	.	4cc\	-cem	4cc\	-mas
8C\J	8c\J	8c/J	8c|/J	.	.	.	.	.
!	!	!	!	!	!LO:TX:t=P:problem=poprawiona pauza 2r na 4r	!	!	!
8F\L	8f\L	8c/L	4c/	.	4r	.	2r	.
8C\	8c\	8c/	.	.	.	.	.	.
!LO:SIC:v:o=8E-\	!LO:SIC:v:o=8e-\	!	!	!	!	!	!	!
8En\	8en\	8c/	8G/L	.	8een\	dic	.	.
8C\J	8c\J	8c/J	8B-/J	.	8ee\	fe-	.	.
=13	=13	=13	=13	=13	=13	=13	=13	=13
8F\L	8f\L	8c/L	8A|/L	.	(8ff\L	-li-	2r	.
8C\	8c\	8c/	8c|/	.	8cc\J)	.	.	.
!LO:SIC:v:o=8E-\	!LO:SIC:v:o=8e-\	!	!	!	!	!	!	!
8En\	8en\	8c/	8G|/	.	4cc\	-cem	.	.
8C\J	8c\J	8c/J	8B-|/J	.	.	.	.	.
8F\L	8f\L	8c/L	8A|/L	.	4r	.	4r	.
8C\	8c\	8c/	8c|/	.	.	.	.	.
!LO:SIC:v:o=8E-\	!LO:SIC:v:o=8e-\	!	!	!	!LO:TX:a:t=P:problem=fragment zapisany repetycją	!	!	!
8En\	8en\	8c/	8G|/	.	8een\yy	dic	8een\	cor-
8C\J	8c\J	8c/J	8B-|/J	.	8ee\yy	fe-	8ee\	-de
!	!	!LO:LB:g=original	!	!	!	!	!	!
=14	=14	=14	=14	=14	=14	=14	=14	=14
8F\L	8f\L	8c/L	(8A/L	.	(y8ff\Lyy	-li-	8ff\L	ves-
8C\	8c\	8c/	8f/)	.	8cc\J)yy	.	8cc\J	.
8F\	8f\	8c/	8c|/	.	4cc\yy	-cem	4cc\	-tro
8C\J	8c\J	8c/J	8c|/J	.	.	.	.	.
8F\L	8f\L	8c/L	4c/	.	4ryy	.	4r	.
8A\	8c\	8f/	.	.	.	.	.	.
*	*	*Xtremolo	*	*	*	*	*	*
!	!	!	!	!	!LO:LB:g=original	!	!	!
8A\	8c\	8f/	8cc\L	.	8cc\	dic	8cc\	ex
8A\J	8B-\J	8f/J	8cc\J	.	8cc\	be-	8cc\	ci-
=15	=15	=15	=15	=15	=15	=15	=15	=15
*	*	*	*2\right	*	*	*	*	*
*tremolo	*tremolo	*tremolo	*tremolo	*	*	*	*	*
8B-\L	8B-\L	8f/L	8dd\L	.	16dd\LL	-a-	16dd\LL	-ta-
.	.	.	.	.	16cc\	.	16cc#X\	.
8B-\	8B-\	8f/	8dd\	.	16dd\	.	16dd\	.
.	.	.	.	.	16een\JJ	.	16een\JJ	.
8B-\	8B-\	8f/	8dd\	.	(4.dd\	.	4.dd\	.
8B-\J	8B-\J	8f/J	8dd\J	.	.	.	.	.
*	*	*Xtremolo	*	*	*	*	*	*
8B-\L	8B-\L	8f/L	8dd\L	.	.	.	.	.
8B-\	8B-\	8f/	8dd\	.	8cc\L	.	8ccn\L	.
8B-\	8B-\	8f#X/	8dd\	.	8b-\	.	8b-\	.
8B-\J	8B-\J	8f#/J	8dd\J	.	8a\J)	.	8a\J	.
=16	=16	=16	=16	=16	=16	=16	=16	=16
*	*	*tremolo	*	*	*	*	*	*
!	!LO:SIC:v:o=8e-\L	!	!	!	!	!	!	!
8En\L	8en\L	8g/L	8dd\L	.	(16g\LL	.	16g\LL	.
.	.	.	.	.	16f#X\	.	16f#X\	.
!	!LO:SIC:v:o=8e-\	!	!	!	!	!	!	!
8En\	8en\	8g/	8dd\	.	16g\	.	16g\	.
.	.	.	.	.	16a\JJ)	.	16a\JJ	.
!	!LO:SIC:v:o=8e-\	!	!	!	!	!	!	!
8En\	8en\	8g/	8dd\	.	4.g\	.	4.g\	.
!	!LO:SIC:v:o=8e-\J	!	!	!	!	!	!	!
8En\J	8en\J	8g/J	8dd\J	.	.	.	.	.
!	!LO:SIC:v:o=8e-\L	!	!	!	!	!	!	!
8E\L	8en\L	8g/L	8dd\L	.	.	.	.	.
!	!LO:SIC:v:o=8e-\	!	!	!	!	!	!	!
8E\	8en\	8g/	8dd\	.	(8g\L	.	8g\L	.
!	!LO:SIC:v:o=8e-\	!	!	!	!	!	!	!
8E\	8en\	8g/	8dd\	.	8a\	.	8a\	.
!	!LO:SIC:v:o=8e-\J	!	!	!	!	!	!	!
8E\J	8en\J	8g/J	8dd\J	.	8b-\J)	.	8b-\J	.
!	!LO:LB:g=original	!	!LO:LB:g=original	!	!	!	!	!
=17	=17	=17	=17	=17	=17	=17	=17	=17
8A\L	8A/L	8g/L	8cc\L	.	(16cc\LL	.	16cc\LL	.
.	.	.	.	.	16b-\	.	16b-\	.
8A\	8A/	8g/	8cc\	.	16cc\	.	16cc\	.
.	.	.	.	.	16dd\JJ)	.	16dd\JJ	.
8A\	8A/	8g/	8cc\	.	(4.cc\	.	4.cc\	.
8A\J	8A/J	8g/J	8cc\J	.	.	.	.	.
*	*	*Xtremolo	*	*	*	*	*	*
8A\L	8A/L	8g/L	8cc\L	.	.	.	.	.
!	!	!	!	!	!	!	!LO:TX:a:t=P:problem=♭ above	!
8A\	8A/	8g/	8cc\	.	8b-\L)	.	8b-X\L	.
8A\	8A/	8e-/	8cc\	.	8a\	.	8a\	.
8A\J	8A/J	8e-/J	8cc\J	.	8g\J	.	8g\J	.
!	!	!	!	!	!	!	!LO:LB:g=original	!
=18	=18	=18	=18	=18	=18	=18	=18	=18
*	*	*tremolo	*	*	*	*	*	*
8D\L	8D/L	8f/L	8cc\L	.	16f/LL	.	16f/LL	.
.	.	.	.	.	16en/	.	16en/	.
8D\	8D/	8f/	8cc\	.	16f/	.	16f/	.
.	.	.	.	.	16g/JJ	.	16g/JJ	.
8D\	8D/	8f/	8cc\	.	4.f/	.	4.f/	.
8D\J	8D/J	8f/J	8cc\J	.	.	.	.	.
8D\L	8D/L	8f/L	8cc\L	.	.	.	.	.
8D\	8D/	8f/	8cc\	.	8f/L	.	8ryy	.
8D\	8D/	8f/	8cc\	.	8g/	.	8g/L	.
8D\J	8D/J	8f/J	8cc\J	.	8a/J	.	8a/J	.
=19	=19	=19	=19	=19	=19	=19	=19	=19
8G\L	8G/L	8f/L	8b-\L	.	16b-\LL	.	16b-\LL	.
.	.	.	.	.	16a\	.	16a\	.
8G\	8G/	8f/	8b-\	.	16b-\	.	16b-\	.
.	.	.	.	.	16cc\JJ	.	16cc\JJ	.
!	!	!	!	!	!LO:LB:g=original	!	!	!
8G\	8G/	8f/	8b-\	.	4.b-\	.	4.b-\	.
8G\J	8G/J	8f/J	8b-\J	.	.	.	.	.
*	*	*Xtremolo	*	*	*	*	*	*
8G\L	8G/L	8f/L	8b-\L	.	.	.	.	.
8G\	8G/	8f/	8b-\	.	8a\L	.	8a\L	.
8G\	8G/	8d/	8b-\	.	8g\	.	8g\	.
8G\J	8G/J	8d/J	8b-\J	.	8f\J	.	8f\J	.
!LO:LB:g=original	!	!	!	!	!	!	!	!
=20	=20	=20	=20	=20	=20	=20	=20	=20
*	*	*tremolo	*	*	*	*	*	*
!	!	!LO:SIC:v:o=8e-/L	!	!	!	!	!	!
8C/L	8C/L	8en/L	8b-\L	.	(16en/LL	.	16en/LL	.
.	.	.	.	.	16d/	.	16d/	.
!	!	!LO:SIC:v:o=8e-/	!	!	!	!	!	!
8C/	8C/	8en/	8b-\	.	16e/	.	16e/	.
.	.	.	.	.	16f/JJ)	.	16f/JJ	.
!	!	!LO:SIC:v:o=8e-/	!	!	!	!	!	!
8C/	8C/	8en/	8b-\	.	(4.e/	-tam	4.e/	.
!	!	!LO:SIC:v:o=8e-/J	!	!	!	!	!	!
8C/J	8C/J	8en/J	8b-\J	.	.	.	.	.
!	!	!LO:SIC:v:o=8e-/L	!	!	!	!	!	!
8C/L	8C/L	8en/L	8b-\L	.	.	.	.	.
!	!	!LO:SIC:v:o=8e-/	!	!	!	!	!	!
8C/	8C/	8en/	8b-\	.	8g\L	Vir-	8g/L	.
!	!	!LO:SIC:v:o=8e-/	!	!	!	!	!	!
8C/	8C/	8en/	8b-\	.	8a\)	.	8a/	.
!	!	!LO:SIC:v:o=8e-/J	!	!	!	!	!	!
8C/J	8C/J	8en/J	8b-\J	.	(8b-\J	.	8b-/J	.
*Xtremolo	*Xtremolo	*Xtremolo	*Xtremolo	*	*	*	*	*
=21	=21	=21	=21	=21	=21	=21	=21	=21
4F\	4F/	4f/	4a\	.	(4a\)	-gi-	4a/	.
4FF/	4f\	4a/	4cc\	.	4cc\)	-nem	4cc\	-te
4r	4r	4r	4r	.	2r	.	2r	.
!LO:SIC:v:o=8E-\L	!	!	!	!	!	!	!	!
8En\L	8en\L	8c/L	8G|/L	.	.	.	.	.
8C\J	8c\J	8c/J	8B-|/J	.	.	.	.	.
!	!	!LO:LB:g=original	!	!	!	!	!	!
=22	=22	=22	=22	=22	=22	=22	=22	=22
*	*	*tremolo	*	*	*	*	*	*
8F|\L	8f\L	8c/L	8A|/L	.	2r	.	2r	.
8C|\	8c\	8c/	8c|/	.	.	.	.	.
!LO:SIC:v:o=8E-|\	!	!	!	!	!	!	!	!
8En|\	8en\	8c/	8G|/	.	.	.	.	.
8C|\J	8c\J	8c/J	8B-|/J	.	.	.	.	.
8F|\L	8f\L	8c/L	8A|/L	.	4r	.	4r	.
8C|\	8c\	8c/	8c|/	.	.	.	.	.
!LO:SIC:v:o=8E-|\	!	!	!	!	!	!	!	!
8En|\	8e\	8c/	8G|/	.	8een\	Con-	8een\	et
8C|\J	8c\J	8c/J	8B-|/J	.	8ee\	-tem-	8ee\	a-
=23	=23	=23	=23	=23	=23	=23	=23	=23
8F\L	8f\L	8c/L	(8A/L	.	(8ff\L	-pla-	(8ff\L	-mo-
8C\	8c\	8c/	8f/)	.	8cc\J)	.	8cc\J)	.
8F\	8f\	8c/	8c|/	.	4cc\	-re	4cc\	-ris
8C\J	8c\J	8c/J	8c|/J	.	.	.	.	.
8F\L	8f\L	8c/L	4c/	.	2r	.	2r	.
8C\	8c\	8c/	.	.	.	.	.	.
!LO:SIC:v:o=8E-\	!LO:SIC:v:o=8e-\	!	!	!	!	!	!	!
8En\	8en\	8c/	8G/L	.	.	.	.	.
8C\J	8c\J	8c/J	8B-/J	.	.	.	.	.
!	!LO:LB:g=original	!	!	!	!	!	!LO:LB:g=original	!
=24	=24	=24	=24	=24	=24	=24	=24	=24
8F\L	8f\L	8c/L	8A|/L	.	2r	.	2r	.
8C\	8c\	8c/	8c|/	.	.	.	.	.
!LO:SIC:v:o=8E-\	!LO:SIC:v:o=8e-\	!	!	!	!	!	!	!
8En\	8en\	8c/	8G|/	.	.	.	.	.
8C\J	8c\J	8c/J	8B-|/J	.	.	.	.	.
8F\L	8f\L	8c/L	8A|/L	.	4r	.	4r	.
8C\	8c\	8c/	8c|/	.	.	.	.	.
!LO:SIC:v:o=8E-\	!LO:SIC:v:o=8e-\	!	!	!	!	!	!	!
8En\	8en\	8c/	8G|/	.	8een\	et	8een\	cor-
8C\J	8c\J	8c/J	8B-|/J	.	8ee\	mi-	8ee\	-de
!	!	!	!LO:LB:g=original	!	!	!	!	!
=25	=25	=25	=25	=25	=25	=25	=25	=25
8F\L	8f\L	8c/L	(8A/L	.	(8ff\L	-ra-	8ff\L	ves-
8C\	8c\	8c/	8f/)	.	8cc\J)	.	8cc\J	.
8F\	8f\	8c/	8c|/	.	4cc\	-re	4cc\	-tro
8C\J	8c\J	8c/J	8c|/J	.	.	.	.	.
8F\L	8f\L	8c/L	4c/	.	2r	.	2r	.
8C\	8c\	8c/	.	.	.	.	.	.
!LO:SIC:v:o=8E-\	!LO:SIC:v:o=8e-\	!	!	!	!	!	!	!
8En\	8en\	8c/	8G|/L	.	.	.	.	.
8C\J	8c\J	8c/J	8B-|/J	.	.	.	.	.
!	!	!	!	!	!LO:LB:g=original	!	!	!
=26	=26	=26	=26	=26	=26	=26	=26	=26
8F\L	8f\L	8c/L	8A|/L	.	2r	.	2r	.
8C\	8c\	8c/	8c|/	.	.	.	.	.
!LO:SIC:v:o=8E-\	!LO:SIC:v:o=8e-\	!	!	!	!	!	!	!
8En\	8en\	8c/	8G|/	.	.	.	.	.
8C\J	8c\J	8c/J	8B-|/J	.	.	.	.	.
8F\L	8f\L	8c/L	8A|/L	.	4r	.	4r	.
8C\	8c\	8c/	8c|/	.	.	.	.	.
!LO:SIC:v:o=8E-\	!LO:SIC:v:o=8e-\	!	!	!	!	!	!	!
8En\	8en\	8c/	8G|/	.	8een\	con-	8een\	sac-
8C\J	8c\J	8c/J	8B-|/J	.	8ee\	-tem-	8ee\	-ri
!LO:LB:g=original	!	!	!	!	!	!	!	!
=27	=27	=27	=27	=27	=27	=27	=27	=27
8F\L	8f\L	8c/L	(8A/L	.	(8ff\L	-pla-	8ff\L	fla-
8C\	8c\	8c/	8f/)	.	8cc\J)	.	8cc\J	.
8F\	8f\	8c/	8c|/	.	4cc\	-re	4cc\	-mas
8C\J	8c\J	8c/J	8c|/J	.	.	.	.	.
*	*	*Xtremolo	*	*	*	*	*	*
!	!LO:TX:t=P:problem=mixed beam	!	!	!	!	!	!	!
4F\	8f\L	4c|/	4c/	.	4r	.	4r	.
.	8F/	.	.	.	.	.	.	.
8A\L	8A/	8f/L	8cc\L	.	8cc\	e-	8cc\	cor-
8A\J	8A/J	8f/J	8cc\J	.	8cc\	-jus	8cc\	-de
=28	=28	=28	=28	=28	=28	=28	=28	=28
*tremolo	*tremolo	*tremolo	*tremolo	*	*	*	*	*
8B-\L	8B-/L	8f/L	8dd\L	.	2dd\	cel-	2dd\	ves-
8B-\	8B-/	8f/	8dd\	.	.	.	.	.
8B-\	8B-/	8f/	8dd\	.	.	.	.	.
8B-\J	8B-/J	8f/J	8dd\J	.	.	.	.	.
*	*	*2\right	*	*	*	*	*	*
!	!	!	!LO:SIC:v:o=8ee-\L	!	!	!	!	!
8G\L	8G/L	8b-\L	8een\L	.	2een\	-si-	2een\	-tro
!	!	!	!LO:SIC:v:o=8ee-\	!	!	!	!	!
8G\	8G/	8b-\	8een\	.	.	.	.	.
!	!	!	!LO:SIC:v:o=8ee-\	!	!	!	!	!
8G\	8G/	8b-\	8een\	.	.	.	.	.
!	!	!	!LO:SIC:v:o=8ee-\J	!	!	!	!	!
8G\J	8G/J	8b-\J	8een\J	.	.	.	.	.
=29	=29	=29	=29	=29	=29	=29	=29	=29
8A\L	8A/L	8cc\L	8ff\L	.	2ff\	-tu-	2ff\	ex
8A\	8A/	8cc\	8ff\	.	.	.	.	.
8A\	8A/	8cc\	8ff\	.	.	.	.	.
8A\J	8A/J	8cc\J	8ff\J	.	.	.	.	.
!LO:SIC:v:o=8E-\L	!	!	!	!	!	!	!	!
8En\L	8E-/L	8cc\L	8gg\L	.	2gg\	-di-	2gg\	ci-
!LO:SIC:v:o=8E-\	!	!	!	!	!	!	!	!
8En\	8E-/	8cc\	8gg\	.	.	.	.	.
!LO:SIC:v:o=8E-\	!	!	!	!	!	!	!	!
8En\	8E-/	8cc\	8gg\	.	.	.	.	.
!LO:SIC:v:o=8E-\J	!	!	!	!	!	!	!	!
8En\J	8E-/J	8cc\J	8gg\J	.	.	.	.	.
!	!LO:LB:g=original	!	!	!	!	!	!LO:LB:g=original	!
=30	=30	=30	=30	=30	=30	=30	=30	=30
8F\L	8F/L	8cc\L	8aa\L	.	2aa\	-nem	2aa\	-ta-
8F\	8F/	8cc\	8aa\	.	.	.	.	.
8F\	8F/	8cc\	8aa\	.	.	.	.	.
8F\J	8F/J	8cc\J	8aa\J	.	.	.	.	.
8A\L	8A/L	8cc\L	8ff\L	.	(2ff\	dic	2ff\	.
8A\	8A/	8cc\	8ff\	.	.	.	.	.
8A\	8A/	8cc\	8ff\	.	.	.	.	.
8A\J	8A/J	8cc\J	8ff\J	.	.	.	.	.
!	!	!LO:LB:g=original	!	!	!	!	!	!
=31	=31	=31	=31	=31	=31	=31	=31	=31
8B-\L	8B-/L	8f/L	8dd\L	.	2dd\)	.	2dd\	.
8B-\	8B-/	8f/	8dd\	.	.	.	.	.
8B-\	8B-/	8f/	8dd\	.	.	.	.	.
8B-\J	8B-/J	8f/J	8dd\J	.	.	.	.	.
8G\L	8G/L	8g/L	8b-\L	.	2b-\	fe-	2b-\	.
8G\	8G/	8g/	8b-\	.	.	.	.	.
8G\	8G/	8g/	8b-\	.	.	.	.	.
8G\J	8G/J	8g/J	8b-\J	.	.	.	.	.
=32	=32	=32	=32	=32	=32	=32	=32	=32
8c\L	8c\L	8f/L	8a\L	.	(2a\	-li-	2a\	.
8c\	8c\	8f/	8a\	.	.	.	.	.
8c\	8c\	8f/	8a\	.	.	.	.	.
8c\J	8c\J	8f/J	8a\J	.	.	.	.	.
!	!	!LO:SIC:v:o=8e-/L	!	!	!	!	!	!
8C/L	8C/L	en/L	8g\L	.	2g\)	.	2g\	.
!	!	!LO:SIC:v:o=8e-/	!	!	!	!	!	!
8C/	8C/	en/	8g\	.	.	.	.	.
!	!	!LO:SIC:v:o=8e-/	!	!	!	!	!	!
8C/	8C/	en/	8g\	.	.	.	.	.
!	!	!LO:SIC:v:o=8e-/J	!	!	!	!	!	!
8C/J	8C/J	en/J	8g\J	.	.	.	.	.
*Xtremolo	*Xtremolo	*Xtremolo	*Xtremolo	*	*	*	*	*
!	!	!	!LO:LB:g=original	!	!	!	!	!
=33	=33	=33	=33	=33	=33	=33	=33	=33
*	*	*	*	*below	*	*	*	*
!	!	!	!	!LO:DY:t=f&colon;	!	!	!	!
4F\	4F/	4A/	4f/	f	4f/	-cem	4f\	-te
4F\	4F/	4A/	4ff\	.	4ff\	dic	4ff\	.
4G\	4G/	4B-/	4ff\	.	4ff\	Ge-	4ff\	cor-
4A\	4A/	4c/	4ff\	.	4ff\	-ni-	4ff\	-de
!	!	!	!	!	!LO:LB:g=original	!	!	!
=34	=34	=34	=34	=34	=34	=34	=34	=34
!	!	!	!	!LO:DY:t=p&colon;	!	!	!	!
4B-\	4B-\	4.d/	4.ff\	p	4.ff\	-tri-	4.ff\	ves-
4B-\	4B-\	.	.	.	.	.	.	.
.	.	8B-/	8dd\	.	8dd\	-cem	8dd\	-tro
4c\	4c\	8a/L	8cc\L	.	(8cc\L	dic	(8cc\L	ex
.	.	8g/	8b-\	.	8b-\J)	.	8b-\)	ci-
4C/	4C/	8f/	8a\	.	(8a\L	be-	(8a\	-ta-
!	!	!LO:SIC:v:o=8e-/J	!	!	!	!	!	!
.	.	8en/J	8g\J	.	8g\J)	.	8g\J)	.
!LO:LB:g=original	!	!	!	!	!	!	!	!
=35	=35	=35	=35	=35	=35	=35	=35	=35
*	*tremolo	*	*	*	*	*	*	*
4F\	8F/L	4A/	4f/	.	4f/	-a-	4f/	-te
.	8F/	.	.	.	.	.	.	.
!	!	!	!	!LO:DY:t=f&colon;	!	!	!	!
8F\L	8F/	4A/	8ff\L	f	4ff\	-tam	4ff\	.
8F\J	8F/J	.	8ff\J	.	.	.	.	.
*	*Xtremolo	*	*	*	*	*	*	*
8G\L	8G/L	4B-/	8ff\L	.	4.ff\	dic	4ff\	cor-
8G\	8G/	.	8ff\	.	.	.	.	.
8A\	8A/	4c/	8ff\	.	.	.	4ff\	-de
8A\J	8A/J	.	8ff\J	.	8ff\	be-	.	.
=36	=36	=36	=36	=36	=36	=36	=36	=36
*tremolo	*	*	*	*	*	*	*	*
!	!	!	!	!LO:DY:t=p&colon;	!	!	!	!
8B-\L	2B-\	4.d/	8ff\L	p	4.ff\	-a-	4.ff\	ves-
8B-\	.	.	8ff\	.	.	.	.	.
8B-\	.	.	8dd\	.	.	.	.	.
8B-\J	.	8B-/	8dd\J	.	8dd\	-tam	8dd\	-tro
*Xtremolo	*	*	*	*	*	*	*	*
!LO:TX:t=P:problem=mixed beam	!LO:TX:t=P:problem=mixed beam	!	!	!	!	!	!	!
8c\L	8c\L	8a/L	8cc\L	.	(8cc\L	Vir-	8cc|\L	ex
8c\	8c\	8g/	8b-\	.	8b-\J)	.	8b-|\J	ci-
8C/	8C/	8f/	8a\	.	(8a\L	-gi-	(8a\L	-ta-
!	!	!LO:SIC:v:o=8e-/J	!	!	!	!	!	!
8C/J	8C/J	8en/J	8g\J	.	8g\J)	.	8g\J)	.
!	!LO:LB:g=original	!	!	!	!	!	!LO:LB:g=original	!
=37	=37	=37	=37	=37	=37	=37	=37	=37
!	!	!	!	!LO:DY:t=fortiſ	!	!	!	!
8F\L	8f\L	8f/L	8.f/L	ff	2f/	-nem	2f/	[-te]
16F\L	16f\L	16f/L	.	.	.	.	.	.
16G\JJ	16g\JJ	16g/JJ	16g/Jk	.	.	.	.	.
8A\L	8a\L	8a/L	8a/L	.	.	.	.	.
8F\J	8f\J	8f/J	8f/J	.	.	.	.	.
8B-\L	8b-\L	8b-/L	8b-/L	.	2r	.	2r	.
8G\	8g\	8g/	8g/	.	.	.	.	.
!LO:SIC:v:o=8E-\	!LO:SIC:v:o=8e-\	!LO:SIC:v:o=8e-/	!LO:SIC:v:o=8e-/	!	!	!	!	!
8En\	8en\	8en/	8en/	.	.	.	.	.
8C\J	8c\J	8c/J	8c/J	.	.	.	.	.
!	!	!LO:LB:g=original	!	!	!	!	!	!
=38	=38	=38	=38	=38	=38	=38	=38	=38
8F\L	8f\L	8f/L	8f/L	.	00r	.	00r	.
16F\L	16f\L	16f/L	16f/L	.	.	.	.	.
16G\JJ	16g\JJ	16g/JJ	16g/JJ	.	.	.	.	.
8A\L	8a\L	8a/L	8a/L	.	.	.	.	.
8F\J	8f\J	8f/J	8f/J	.	.	.	.	.
8B-\L	8b-\L	8b-/L	8b-/L	.	.	.	.	.
8G\	8g\	8g/	8g/	.	.	.	.	.
!LO:SIC:v:o=8E-\	!LO:SIC:v:o=8e-\	!LO:SIC:v:o=8e-/	!LO:SIC:v:o=8e-/	!	!	!	!	!
8En\	8en\	8en/	8en/	.	.	.	.	.
8C\J	8c\J	8c/J	8c/J	.	.	.	.	.
!	!	!	!LO:LB:g=original	!	!	!	!	!
=39	=39	=39	=39	=39	=39	=39	=39	=39
!	!LO:TX:t=P:problem=mixed beam	!	!	!	!	!	!	!
8F\L	8f\L	8f/L	8f/L	.	.	.	.	.
16F\L	16F/L	16f/L	16f/L	.	.	.	.	.
16G\JJ	16G/JJ	16g/JJ	16g/JJ	.	.	.	.	.
8A\L	8A/L	8a/L	8a/L	.	.	.	.	.
8F\J	8F/J	8f/J	8f/J	.	.	.	.	.
8B-\L	8B-/L	8b-/L	8b-\L	.	.	.	.	.
8G\J	8G/J	8g/	8g\J	.	.	.	.	.
8c\L	8c/L	8cc/	8cc\L	.	.	.	.	.
8A\J	8A/J	8a/J	8a\J	.	.	.	.	.
!LO:LB:g=original	!	!	!	!	!	!	!	!
=40	=40	=40	=40	=40	=40	=40	=40	=40
8d\L	8d\L	8dd\L	8dd\L	.	.	.	.	.
8B-\J	8B-\J	8b-\	8b-\J	.	.	.	.	.
8e-\L	8e-\L	8ee-\	8ee-\L	.	.	.	.	.
8c\J	8c\J	8cc\J	8cc\J	.	.	.	.	.
4f\	4f\	4ff\	4ff\	.	.	.	.	.
4A\	4A\	4a\	4a\	.	.	.	.	.
=41	=41	=41	=41	=41	=41	=41	=41	=41
4.B-\	4B-\	4.b-\	4.b-\	.	.	.	.	.
.	8A\L	.	.	.	.	.	.	.
16A\LL	8B-\J	16a\LL	16a\LL	.	.	.	.	.
16B-\JJ	.	16b-\JJ	16b-\JJ	.	.	.	.	.
4c\	4c\	4cc\	4cc\	.	.	.	.	.
4C/	4c\	4c/	4c/	.	.	.	.	.
!	!LO:LB:g=original	!	!	!	!	!	!	!
=42	=42	=42	=42	=42	=42	=42	=42	=42
*	*	*^	*	*	*	*	*	*
4F\	4f\	4f/	4ryy	4f/	.	1r	.	1r	.
4FF/	4F/	4a/	4f\	4ff 4a\	.	.	.	.	.
4FF/	4F/	4a/	4f\	4ff 4a\	.	.	.	.	.
4r	4r	4r	4r	4r	.	.	.	.	.
*	*	*v	*v	*	*	*	*	*	*
==	==	==	==	==	==	==	==	==
*-	*-	*-	*-	*-	*-	*-	*-	*-
!!!system-decoration: s1,s2[(g1)]
!!!RDF**kern: > = above
!!!RDF**kern: | = vertical stroke
!!!ENC: Andrzej Gręziak
!!!END: 2020-10-05
!!!ENC: Marta Lawrence
!!!END: 2022-01-27
